images/logo1.svg

<?xml version="1.0" encoding="UTF-8" standalone="no"?>
<svg width="150px" height="60px" viewBox="0 0 150 60" version="1.1" xmlns="http://www.w3.org/2000/svg" xmlns:xlink="http://www.w3.org/1999/xlink" xmlns:sketch="http://www.bohemiancoding.com/sketch/ns">
    <!-- Generator: Sketch 3.3.3 (12081) - http://www.bohemiancoding.com/sketch -->
    <title>logo1</title>
    <desc>Created with Sketch.</desc>
    <defs></defs>
    <g id="Page-1" stroke="none" stroke-width="1" fill="none" fill-rule="evenodd" sketch:type="MSPage">
        <g id="logo1" sketch:type="MSArtboardGroup" fill="#FFFFFF">
            <path d="M0,7.2281717 L46.0914454,7.2281717 L46.0914454,52.9356439 L0,52.9356439 L0,7.2281717 Z M31.7208702,33.0291256 L31.7208702,29.8040064 C31.7208702,28.8972432 31.3853982,28.443752 30.7144543,28.443752 C30.3825959,28.443752 30.0951327,28.5628108 29.8514012,28.8002703 C29.6084071,29.0380223 29.4865782,29.3870811 29.4865782,29.8477393 L29.4865782,33.0291256 L27.8162979,33.0291256 L27.8162979,29.8040064 C27.8162979,29.3361812 27.7443215,28.9921685 27.600295,28.7729189 C27.4568584,28.5533037 27.2245575,28.443752 26.9035398,28.443752 C26.5830383,28.443752 26.2985251,28.5628108 26.0519174,28.8002703 C25.804646,29.0380223 25.6809735,29.3870811 25.6809735,29.8477393 L25.6809735,33.0291256 L24.0221976,33.0291256 L24.0221976,27.1273037 L25.6809735,27.1273037 L25.6809735,27.7965342 C26.1383481,27.2846836 26.6622419,27.0285024 27.2522124,27.0285024 C27.6284661,27.0285024 27.9693953,27.1383466 28.2754425,27.3575962 C28.5814897,27.5772114 28.8119469,27.8441431 28.9668142,28.1583911 C29.1955015,27.8004102 29.5033186,27.5222162 29.890413,27.3249062 C30.2775074,27.1273037 30.6664454,27.0285024 31.0571534,27.0285024 C31.7581121,27.0285024 32.3222714,27.2353196 32.7501475,27.6483688 C33.1774336,28.0617107 33.3917404,28.6594913 33.3917404,29.4418569 L33.3917404,33.0291256 L31.7208702,33.0291256 Z M21.3119469,31.4879428 C21.4295723,31.6159237 21.5699853,31.6799141 21.7320059,31.6799141 C22.0416667,31.6799141 22.3033923,31.5409634 22.5176254,31.2629889 L23.1369469,32.4148903 C22.6208702,32.8830079 22.0771386,33.1168839 21.5051622,33.1168839 C20.9338496,33.1168839 20.4507375,32.9303243 20.0564159,32.5574245 C19.6615044,32.1843052 19.4646755,31.6763307 19.4646755,31.0326963 L19.4646755,28.3119682 L18.7679204,28.3119682 L18.7679204,27.1273037 L19.4646755,27.1273037 L19.4646755,25.3611669 L21.134882,25.3611669 L21.134882,27.1273037 L22.5728614,27.1273037 L22.5728614,28.3119682 L21.134882,28.3119682 L21.134882,30.9559078 C21.134882,31.1826169 21.1936578,31.360035 21.3119469,31.4879428 Z M15.5708702,31.6579014 C16.1242625,31.6579014 16.6217552,31.3835103 17.0640855,30.8350938 L18.0488938,31.9322194 C17.2819322,32.7219714 16.4519174,33.1168839 15.5601032,33.1168839 C14.6676991,33.1168839 13.9132743,32.8371542 13.2974926,32.2776948 C12.6817847,31.7183084 12.3738938,30.9871351 12.3738938,30.0837361 C12.3738938,29.1805564 12.6853982,28.4455803 13.3089233,27.8786614 C13.9318584,27.3121081 14.6712389,27.0285024 15.5264749,27.0285024 C15.954351,27.0285024 16.3876844,27.1162607 16.8264012,27.2918506 C17.265118,27.4674404 17.6504425,27.7272051 17.9823009,28.0706328 L17.1199115,29.1897711 C16.9278024,28.963062 16.6938053,28.7874722 16.4171091,28.6630747 C16.140413,28.5389698 15.8655605,28.4765151 15.5930678,28.4765151 C15.1579646,28.4765151 14.7834808,28.6175866 14.4702065,28.8990715 C14.1569322,29.1805564 14.000295,29.5718855 14.000295,30.0726932 C14.000295,30.5737933 14.1569322,30.9630747 14.4702065,31.2409762 C14.7834808,31.5188776 15.1508112,31.6579014 15.5708702,31.6579014 Z M147.251401,52.8005692 L141.459956,45.2463307 L141.459956,52.8005692 L138.746681,52.8005692 L138.746681,40.7449126 L141.285914,40.7449126 L147.251401,48.5059682 L147.251401,40.7449126 L149.964676,40.7449126 L149.964676,52.8005692 L147.251401,52.8005692 Z M133.042257,40.7449126 L135.755531,40.7449126 L135.755531,52.8005692 L133.042257,52.8005692 L133.042257,40.7449126 L133.042257,40.7449126 Z M127.616298,50.196194 L122.520428,50.196194 L121.390339,52.8005692 L118.503024,52.8005692 L123.755531,40.7449126 L126.381785,40.7449126 L131.633702,52.8005692 L128.746976,52.8005692 L127.616298,50.196194 L127.616298,50.196194 Z M125.077065,44.3321812 L123.546681,47.8334467 L126.590044,47.8334467 L125.077065,44.3321812 L125.077065,44.3321812 Z M115.546681,52.8005692 L112.833407,52.8005692 L112.833407,43.0731415 L109.389823,43.0731415 L109.389823,40.7449126 L118.990339,40.7449126 L118.990339,43.0731415 L115.546681,43.0731415 L115.546681,52.8005692 L115.546681,52.8005692 Z M98.9028024,45.2463307 L98.9028024,52.8005692 L96.189528,52.8005692 L96.189528,40.7449126 L98.7287611,40.7449126 L104.694248,48.5059682 L104.694248,40.7449126 L107.407522,40.7449126 L107.407522,52.8005692 L104.694248,52.8005692 L98.9028024,45.2463307 L98.9028024,45.2463307 Z M102.399263,19.4037647 L97.0771386,19.4037647 L97.0771386,7.34810811 L101.808112,7.34810811 C102.6309,7.34810811 103.340855,7.4460318 103.938643,7.64122099 C104.535177,7.83699523 104.984661,8.10129412 105.285988,8.43455644 C105.8309,9.055593 106.103392,9.75700159 106.103392,10.5387091 C106.103392,11.4817456 105.796091,12.1830811 105.182153,12.6428617 C104.973304,12.8041176 104.828024,12.9047472 104.74705,12.9448967 C104.666003,12.9850461 104.520796,13.0511574 104.312537,13.1430843 C105.065708,13.3043402 105.665855,13.640601 106.112389,14.152159 C106.55826,14.663717 106.782153,15.2990143 106.782153,16.0578315 C106.782153,16.8973132 106.491667,17.6387981 105.912537,18.2827981 C105.239749,19.0302798 104.068879,19.4037647 102.399263,19.4037647 L102.399263,19.4037647 Z M102.798968,9.88344674 C102.462832,9.71085533 101.894543,9.62485215 101.094543,9.62485215 L99.790413,9.62485215 L99.790413,12.2289348 L101.077139,12.2289348 C101.8309,12.2289348 102.390265,12.1485628 102.755752,11.9875994 C103.120649,11.8266359 103.303687,11.4787472 103.303687,10.9440064 C103.303687,10.409558 103.135029,10.0560382 102.798968,9.88344674 L102.798968,9.88344674 Z M103.364307,14.6178633 C102.952581,14.4396407 102.294838,14.3503466 101.390413,14.3503466 L99.790413,14.3503466 L99.790413,17.1270207 L101.651475,17.1270207 C102.428024,17.1270207 103.010767,17.0323879 103.399115,16.8425374 C103.787389,16.6529793 103.981858,16.2792019 103.981858,15.7215707 C103.981858,15.1639396 103.775959,14.7960859 103.364307,14.6178633 L103.364307,14.6178633 Z M91.3727139,11.8150079 L88.0856932,18.4033196 L86.4682891,18.4033196 L83.1986726,11.8150079 L83.1986726,19.4037647 L80.4853982,19.4037647 L80.4853982,7.34810811 L84.1553097,7.34810811 L87.2856932,13.970938 L90.4334808,7.34810811 L94.0859882,7.34810811 L94.0859882,19.4037647 L91.3727139,19.4037647 L91.3727139,11.8150079 L91.3727139,11.8150079 Z M74.7809735,7.34810811 L77.4942478,7.34810811 L77.4942478,19.4037647 L74.7809735,19.4037647 L74.7809735,7.34810811 L74.7809735,7.34810811 Z M78.989823,42.2539173 C80.2189528,43.444213 80.8334808,44.9246232 80.8334808,46.695221 C80.8334808,48.4658188 80.2189528,49.9462289 78.989823,51.1362321 C77.760767,52.3262353 76.2477876,52.9213831 74.450295,52.9213831 C72.6534661,52.9213831 71.1398968,52.3262353 69.9113569,51.1362321 C68.6823009,49.9462289 68.0676991,48.4658188 68.0676991,46.695221 C68.0676991,44.9246232 68.6823009,43.444213 69.9113569,42.2539173 C71.1398968,41.0639141 72.6534661,40.4690588 74.450295,40.4690588 C76.2477876,40.4690588 77.760767,41.0639141 78.989823,42.2539173 L78.989823,42.2539173 Z M74.459292,42.8145469 C73.444469,42.8145469 72.589823,43.1939555 71.8936578,43.9527727 C71.1980826,44.7118824 70.85059,45.6287377 70.85059,46.7038506 C70.85059,47.7789634 71.1980826,48.6931129 71.8936578,49.4460064 C72.589823,50.1991924 73.444469,50.5756025 74.459292,50.5756025 C75.4735988,50.5756025 76.3287611,50.1991924 77.0243363,49.4460064 C77.7199115,48.6931129 78.0679941,47.7789634 78.0679941,46.7038506 C78.0679941,45.6287377 77.7199115,44.7118824 77.0243363,43.9527727 C76.3287611,43.1939555 75.4735988,42.8145469 74.459292,42.8145469 L74.459292,42.8145469 Z M70.2936578,31.3590843 L65.4588496,31.3590843 L65.4588496,36.1021304 L62.7455752,36.1021304 L62.7455752,24.0464738 L65.4588496,24.0464738 L65.4588496,29.0826328 L70.2936578,29.0826328 L70.2936578,24.0464738 L73.0069322,24.0464738 L73.0069322,36.1021304 L70.2936578,36.1021304 L70.2936578,31.3590843 L70.2936578,31.3590843 Z M64.9025074,7.34810811 L67.6157817,7.34810811 L67.6157817,17.0064992 L72.7986726,17.0064992 L72.7986726,19.4037647 L64.9025074,19.4037647 L64.9025074,7.34810811 L64.9025074,7.34810811 Z M57.945649,9.64211129 C56.9253687,9.64211129 56.0527286,9.97274086 55.3283923,10.6336343 C54.6033923,11.2948203 54.2415192,12.185787 54.2415192,13.3070461 C54.2415192,14.4280127 54.5829646,15.3279014 55.2677729,16.0060541 C55.9513274,16.6844992 56.7807522,17.0237583 57.7547935,17.0237583 C59.0876844,17.0237583 60.1775811,16.5006455 61.02441,15.4543466 L62.7636431,17.2305755 C61.3832596,18.7713927 59.7574484,19.5418378 57.8850295,19.5418378 C56.0125369,19.5418378 54.4701327,18.9553196 53.2584808,17.7825755 C52.0467552,16.6098315 51.4412242,15.1294213 51.4412242,13.3415644 C51.4412242,11.5537075 52.0587758,10.0616693 53.2932891,8.86574245 C54.5283923,7.67010811 56.0383481,7.07225437 57.8237463,7.07225437 C59.8180678,7.07225437 61.4876844,7.82544038 62.8325959,9.33144674 L61.1455752,11.2287822 C60.2879794,10.1709285 59.220944,9.64211129 57.945649,9.64211129 L57.945649,9.64211129 Z M60.7633481,26.3747027 L57.3196903,26.3747027 L57.3196903,36.1021304 L54.6064159,36.1021304 L54.6064159,26.3747027 L51.1627581,26.3747027 L51.1627581,24.0464738 L60.7633481,24.0464738 L60.7633481,26.3747027 L60.7633481,26.3747027 Z M58.9719027,47.3677424 L62.1196165,40.7449126 L65.7721239,40.7449126 L65.7721239,52.8005692 L63.0588496,52.8005692 L63.0588496,45.2118124 L59.7719027,51.800124 L58.1544985,51.800124 L54.884882,45.2118124 L54.884882,52.8005692 L52.1716077,52.8005692 L52.1716077,40.7449126 L55.8415192,40.7449126 L58.9719027,47.3677424 L58.9719027,47.3677424 Z M84.9547198,33.722124 L84.9547198,36.1021304 L75.9980826,36.1021304 L75.9980826,24.0464738 L84.7638643,24.0464738 L84.7638643,26.4437393 L78.7113569,26.4437393 L78.7113569,28.9273005 L84.1547198,28.9273005 L84.1547198,31.2213037 L78.7113569,31.2213037 L78.7113569,33.722124 L84.9547198,33.722124 L84.9547198,33.722124 Z M85.6676991,47.4022607 C85.6676991,48.3681876 85.8939528,49.1300032 86.3458702,49.6876343 C86.7983776,50.2452655 87.4069322,50.5238251 88.1721239,50.5238251 C88.9373156,50.5238251 89.5434366,50.2452655 89.9899705,49.6876343 C90.4359145,49.1300032 90.6591445,48.3681876 90.6591445,47.4022607 L90.6591445,40.7449126 L93.3724189,40.7449126 L93.3724189,47.4885564 C93.3724189,49.2364833 92.8856932,50.578601 91.9116519,51.5156407 C90.9376106,52.452973 89.6910767,52.9213831 88.1721239,52.9213831 C86.6531711,52.9213831 85.4042035,52.4500477 84.4241888,51.5070111 C83.444174,50.5642671 82.9544248,49.2249285 82.9544248,47.4885564 L82.9544248,40.7449126 L85.6676991,40.7449126 L85.6676991,47.4022607 L85.6676991,47.4022607 Z" id="Rectangle-path" sketch:type="MSShapeGroup"></path>
        </g>
    </g>
</svg>

<svg width="150" height="60" xmlns="http://www.w3.org/2000/svg"><g id="Page-1" stroke="none" stroke-width="1" fill="none" fill-rule="evenodd"><g id="logo1" fill="#FFF"><path d="M0 7.228h46.091v45.708H0V7.228zM31.72 33.03v-3.225c0-.907-.335-1.36-1.006-1.36-.331 0-.619.119-.863.356-.243.238-.364.587-.364 1.048v3.181h-1.67v-3.225c0-.468-.073-.812-.217-1.031-.143-.22-.375-.33-.696-.33-.321 0-.605.12-.852.357-.247.238-.371.587-.371 1.048v3.181h-1.659v-5.902h1.659v.67c.457-.512.981-.768 1.571-.768.376 0 .717.11 1.023.329.306.22.537.486.692.8.229-.358.536-.636.923-.833a2.545 2.545 0 011.167-.296c.701 0 1.265.206 1.693.62.427.413.642 1.01.642 1.793v3.587H31.72zm-10.408-1.541a.552.552 0 00.42.192c.31 0 .571-.139.786-.417l.619 1.152c-.516.468-1.06.702-1.632.702-.571 0-1.054-.187-1.449-.56-.394-.373-.591-.88-.591-1.524v-2.721h-.697v-1.185h.697v-1.766h1.67v1.766h1.438v1.185h-1.438v2.644c0 .227.059.404.177.532zm-5.741.17c.553 0 1.05-.274 1.493-.823l.985 1.097c-.767.79-1.597 1.185-2.489 1.185-.892 0-1.647-.28-2.263-.84-.615-.559-.923-1.29-.923-2.193s.311-1.638.935-2.205a3.186 3.186 0 012.217-.85c.428 0 .862.087 1.3.263.44.175.824.435 1.156.779l-.862 1.119a1.964 1.964 0 00-.703-.527 2.002 2.002 0 00-.824-.186c-.435 0-.81.14-1.123.422-.313.282-.47.673-.47 1.174 0 .5.157.89.47 1.168.313.278.68.417 1.1.417zM147.25 52.8l-5.791-7.555V52.8h-2.713V40.745h2.539l5.965 7.761v-7.761h2.714V52.8h-2.714zm-14.209-12.056h2.714V52.8h-2.714V40.745zm-5.426 9.451h-5.096l-1.13 2.605h-2.887l5.253-12.056h2.626l5.252 12.056h-2.887l-1.13-2.605zm-2.539-5.864l-1.53 3.501h3.043l-1.513-3.5zm-9.53 8.469h-2.714v-9.728h-3.443v-2.328h9.6v2.328h-3.443V52.8zm-16.644-7.555V52.8H96.19V40.745h2.539l5.965 7.761v-7.761h2.714V52.8h-2.714l-5.791-7.555zm3.496-25.842h-5.322V7.348h4.731c.823 0 1.533.098 2.13.293.597.196 1.047.46 1.348.794.545.62.817 1.322.817 2.104 0 .943-.307 1.644-.92 2.104a3.312 3.312 0 01-.436.302c-.081.04-.226.106-.434.198.753.161 1.353.498 1.8 1.01.445.51.67 1.146.67 1.905 0 .84-.291 1.58-.87 2.225-.673.747-1.844 1.12-3.514 1.12zm.4-9.52c-.336-.173-.904-.26-1.704-.26H99.79v2.605h1.287c.754 0 1.313-.08 1.679-.241.365-.161.548-.51.548-1.044s-.169-.888-.505-1.06zm.565 4.734c-.411-.178-1.07-.268-1.974-.268h-1.6v2.777h1.861c.777 0 1.36-.095 1.748-.284.388-.19.583-.564.583-1.121 0-.558-.206-.926-.618-1.104zm-11.991-2.803l-3.287 6.588h-1.618l-3.27-6.588v7.589h-2.713V7.348h3.67l3.13 6.623 3.148-6.623h3.653v12.056h-2.713v-7.589zM74.78 7.348h2.713v12.056H74.78V7.348zm4.209 34.906c1.229 1.19 1.843 2.67 1.843 4.441 0 1.77-.614 3.251-1.843 4.441-1.23 1.19-2.742 1.785-4.54 1.785-1.797 0-3.31-.595-4.539-1.785-1.229-1.19-1.843-2.67-1.843-4.44 0-1.771.614-3.252 1.843-4.442 1.229-1.19 2.742-1.785 4.54-1.785 1.797 0 3.31.595 4.539 1.785zm-4.53.56c-1.016 0-1.87.38-2.566 1.139-.696.759-1.043 1.676-1.043 2.75 0 1.076.347 1.99 1.043 2.743.696.753 1.55 1.13 2.565 1.13s1.87-.377 2.565-1.13c.696-.753 1.044-1.667 1.044-2.742s-.348-1.992-1.044-2.751c-.695-.759-1.55-1.138-2.565-1.138zM70.293 31.36h-4.835v4.743h-2.713V24.046h2.713v5.037h4.835v-5.037h2.713v12.056h-2.713V31.36zm-5.39-24.01h2.713v9.657h5.183v2.398h-7.896V7.348zm-6.957 2.293c-1.02 0-1.893.33-2.618.992-.725.66-1.086 1.552-1.086 2.673s.341 2.02 1.026 2.7c.683.677 1.513 1.017 2.487 1.017 1.333 0 2.423-.523 3.27-1.57l1.739 1.777c-1.38 1.54-3.007 2.31-4.879 2.31-1.872 0-3.415-.586-4.627-1.758-1.211-1.173-1.817-2.654-1.817-4.441 0-1.788.618-3.28 1.852-4.476 1.235-1.196 2.745-1.794 4.53-1.794 1.995 0 3.665.753 5.01 2.26l-1.687 1.897c-.858-1.058-1.925-1.587-3.2-1.587zm2.817 16.733H57.32v9.727h-2.714v-9.727h-3.443v-2.329h9.6v2.329zm-1.791 20.993l3.148-6.623h3.652V52.8H63.06v-7.59l-3.287 6.59h-1.618l-3.27-6.59v7.59h-2.712V40.745h3.67l3.13 6.623zm25.983-13.646v2.38h-8.957V24.046h8.766v2.398H78.71v2.483h5.444v2.294H78.71v2.501h6.244zm.713 13.68c0 .966.226 1.728.678 2.286.452.557 1.06.836 1.826.836.765 0 1.371-.279 1.818-.836.446-.558.67-1.32.67-2.286v-6.657h2.712v6.744c0 1.747-.486 3.09-1.46 4.027-.974.937-2.22 1.405-3.74 1.405-1.519 0-2.768-.471-3.748-1.414-.98-.943-1.47-2.282-1.47-4.018v-6.744h2.714v6.657z" id="Rectangle-path"/></g></g></svg>
